X:779
T:Queen Maries
C:Joe Buchanan's Scottish Tome - Page 533.2
I:533 2
Z:Carl Allison
R:Slow Air
L:1/4
M:3/4
K:D
D/E/ | "D"(F2 E) | "D"(D F A) | "G"B3 | "D"(A2 D) | "D"F2 F | "B"(A2 F)| "E"E3- | "A"E2  A |
"D"d2 d | "F#"c2 A | "G"B2 A | "D"(D2 E) | "D"F A F | "A"E F E | "D"D3- | "D"D2 :|

